!!!OTL: Xifu zou niangjia
!!!ARE: Asia, China,ˇHebei, Jingxian
!! IV, 68(2)
!!!SCT: C1640
!!!YEM: Copyright 1995, estate of Helmut Schaffrath.
**kern
*ICvox
*Ivox
!! Mixed meters:  2/4; 1/4
*M1/4
*k[f#c#]
*D:
{4dd
4f#
=1
4dd
4f#
=2
8f#
8a
8b
16a
16b
=3
8dd
8f#
4e}
=4
{8f#
16f#
16f#
8f#
8f#
=5
8a
8f#
8e
8d
=6
8f#
16f#
16f#
8a
8d
=7
8e
16f#
16e
4d}
=8
{8.d
16e
4f#
=9
8r
8f#
=10
*M2/4
8f#
16f#
16f#
8a
8d
=11
8e
16f#
16e
4d}
==
!!!AGN: Xiaodiao. FunÅ shenghuo 
!!!AMT: irregular
!!!AIN: vox
!!!EED: Helmut Schaffrath
!!!EEV: 1.0
*-
